icons/Communications_infraicons.svg

<svg width="16" height="16" viewBox="0 0 16 16" fill="currentColor" xmlns="http://www.w3.org/2000/svg">
<g clip-path="url(#clip0_4_1651)">
<path d="M5.71389 16H1.56176C1.36636 16 1.17097 15.8991 1.07327 15.7476C0.975576 15.5962 0.975576 15.4448 1.07327 15.2429L2.48988 12.0126C2.83182 11.1041 2.92952 11.6088 3.27146 11.7603L3.36916 11.8612C3.5157 12.0631 3.90649 12.4164 5.03001 12.8707L5.1277 12.9211L5.17655 13.0726C5.17655 13.0726 5.81158 14.5363 6.20237 15.1924C6.30007 15.3439 6.25122 15.5457 6.20237 15.6972C6.05583 15.8991 5.90928 16 5.71389 16ZM2.97837 12.3659L1.61061 15.3943H5.56734C5.2254 14.7886 4.78576 13.7792 4.63922 13.4259C3.90649 13.123 3.32031 12.7192 2.97837 12.3659Z" fill="#3D3D3D"/>
<path d="M6.69086 13.5268C5.3231 13.5268 3.95534 13.0221 2.92952 12.0126C1.95255 11.1041 1.41521 9.84227 1.36636 8.47949C1.31752 7.06625 1.85485 5.75394 2.83182 4.74448L3.36916 4.18927L6.64201 7.41956L6.73971 7.31861C6.64201 7.11672 6.59316 6.91483 6.59316 6.71293C6.59316 5.90536 7.22819 5.29968 8.05862 5.29968C8.88904 5.29968 9.42638 5.90536 9.42638 6.71293C9.42638 7.57098 8.69365 8.12618 8.05862 8.12618C7.86322 8.12618 7.71668 8.07571 7.57013 8.02524L7.47244 8.12618L8.40056 9.0347C8.49825 9.13565 8.49825 9.33754 8.40056 9.43849C8.30286 9.53943 8.10747 9.58991 8.00977 9.43849L6.64201 8.17666L3.36916 4.99684L3.27146 5.09779C2.39218 6.00631 1.95255 7.16719 1.95255 8.37855C1.95255 9.58991 2.44103 10.6498 3.32031 11.5079C5.17655 13.3249 8.15631 13.3249 10.0126 11.5079L10.0614 11.4574H10.1103L9.32868 10.7003C9.23098 10.5994 9.18213 10.3975 9.32868 10.2965C9.47523 10.1956 9.62177 10.1956 9.71947 10.2965L10.9407 11.4574L10.6964 11.6593L10.6476 11.7098L10.3545 12.0126C9.37753 13.0221 8.00977 13.5268 6.69086 13.5268ZM7.52128 7.31861L7.61898 7.36908C7.76553 7.41956 7.86322 7.5205 8.05862 7.5205C8.44941 7.5205 8.84019 7.16719 8.84019 6.71293C8.84019 6.25867 8.49825 5.90536 8.05862 5.90536C7.61898 5.90536 7.17934 6.25867 7.17934 6.71293C7.17934 6.86435 7.22819 7.06625 7.32589 7.16719L7.52128 7.31861ZM14.7509 7.16719C14.5555 7.16719 14.4578 7.01577 14.4578 6.86435C14.4578 6.86435 14.6532 4.64353 13.0412 2.67508C11.4292 0.706625 9.23098 0.605678 9.18213 0.605678C9.03559 0.605678 8.88904 0.454259 8.88904 0.302839C8.88904 0.15142 8.98674 0 9.18213 0C9.27983 0 11.6734 0.100946 13.432 2.27129C15.1905 4.44164 14.9951 6.81388 14.9951 6.91483C14.9951 7.01577 14.8974 7.16719 14.7509 7.16719ZM12.1619 7.16719C11.9665 7.16719 11.8688 7.01577 11.8688 6.81388C11.8688 6.81388 11.9665 5.50158 10.9895 4.29022C10.0126 3.12934 8.69365 3.02839 8.69365 3.02839C8.5471 3.02839 8.40056 2.87697 8.40056 2.72555C8.40056 2.57413 8.5471 2.42271 8.69365 2.42271C8.7425 2.42271 10.208 2.52366 11.3803 3.88644C12.5527 5.24921 12.4061 6.81388 12.4061 6.86435C12.455 7.01577 12.3084 7.16719 12.1619 7.16719Z" fill="#3D3D3D"/>
</g>
<defs>
<clipPath id="clip0_4_1651">
<rect width="14" height="16" fill="white" transform="translate(1)"/>
</clipPath>
</defs>
</svg>

<svg xmlns="http://www.w3.org/2000/svg" width="16" height="16" fill="currentColor" class="si si-Communications_infraicons" viewBox="0 0 16 16">
  <g clip-path="url(#a)">
    <path d="M5.714 16H1.562c-.196 0-.391-.1-.489-.252s-.097-.303 0-.505l1.417-3.23c.342-.909.44-.404.781-.253l.098.101c.147.202.537.555 1.661 1.01l.098.05.049.152s.635 1.463 1.025 2.12c.098.15.05.353 0 .504-.146.202-.293.303-.488.303m-2.736-3.634-1.367 3.028h3.956c-.342-.605-.781-1.615-.928-1.968-.733-.303-1.319-.707-1.66-1.06"/>
    <path d="M6.69 13.527c-1.367 0-2.735-.505-3.76-1.514-.977-.909-1.515-2.17-1.564-3.534-.048-1.413.489-2.725 1.466-3.735l.537-.555 3.273 3.23.098-.1a1.4 1.4 0 0 1-.147-.606c0-.808.635-1.413 1.466-1.413.83 0 1.367.605 1.367 1.413 0 .858-.732 1.413-1.367 1.413-.196 0-.342-.05-.489-.1l-.098.1.929.909c.097.1.097.303 0 .403-.098.101-.294.152-.391 0L6.642 8.177l-3.273-3.18-.098.1A4.66 4.66 0 0 0 1.953 8.38c0 1.21.488 2.27 1.367 3.129a4.79 4.79 0 0 0 6.693 0l.048-.05h.05l-.782-.758c-.098-.1-.147-.302 0-.403.146-.101.293-.101.39 0l1.222 1.16-.245.202-.048.05-.293.304c-.977 1.01-2.345 1.514-3.664 1.514m.831-6.208.098.05c.147.05.244.152.44.152.39 0 .781-.354.781-.808s-.342-.808-.781-.808c-.44 0-.88.354-.88.808 0 .151.05.353.147.454zm7.23-.152c-.195 0-.293-.151-.293-.303 0 0 .195-2.22-1.417-4.189S9.231.605 9.182.605c-.146 0-.293-.15-.293-.302S8.987 0 9.182 0c.098 0 2.491.1 4.25 2.271s1.563 4.543 1.563 4.644-.098.252-.244.252m-2.59 0c-.194 0-.292-.151-.292-.353 0 0 .098-1.312-.88-2.524-.976-1.16-2.295-1.262-2.295-1.262-.147 0-.293-.151-.293-.302 0-.152.146-.303.293-.303.048 0 1.514.1 2.686 1.463 1.173 1.363 1.026 2.928 1.026 2.978.049.152-.098.303-.244.303"/>
  </g>
  <defs>
    <clipPath id="a">
      <path d="M1 0h14v16H1z"/>
    </clipPath>
  </defs>
</svg>
